X: 524
T: The reconciliation
C: anon.
O: Ireland
B: Francis O'Neill: "The Dance Music of Ireland" (1907) no. 524
R: Reel
Z: Transcribed by Frank Nordberg - http://www.musicaviva.com
F: http://www.musicaviva.com/abc/tunes/ireland/oneill-1001/oneill-1001-052
4.abc
M: C|
L: 1/8
K: A
A2cA eAfA|eAfA ecBc|A2cA eAfA|ecBc AFEF|A2cA eAfA|eAfA ecBc|ABAF Ecdf|ecB
a "^1)"A4:|
|:A2ce a2af|efed cdBc|A2ce a2ag|fbba gbeg|agae faec|dBcA BAFG|ABAF Ecdf|e
cBc "^1)"A4:|
W:
W:
W: 1) org. fourth note
W:
W:
W: From Musica Viva - http://www.musicaviva.com
W: the Internet center for free sheet music downloads.


